solution/ui/src/images/breakeven_point.svg

<svg fill="none" height="53" viewBox="0 0 120 53" width="120" xmlns="http://www.w3.org/2000/svg"><rect height="52" rx="7.5" stroke="#c5c5c5" width="119" x=".5" y=".5"/><path d="m13.26 20v-9.184h2.73c.4667 0 .8913.042 1.274.126.392.084.7233.2147.994.392.28.1773.4947.4107.644.7.1587.28.238.6207.238 1.022 0 .4573-.1167.8727-.35 1.246-.224.364-.5553.616-.994.756v.056c.56.1027 1.0127.336 1.358.7s.518.8633.518 1.498c0 .448-.084.84-.252 1.176s-.406.616-.714.84-.6767.392-1.106.504-.9007.168-1.414.168zm1.162-5.278h1.358c.784 0 1.3487-.1353 1.694-.406s.518-.6393.518-1.106c0-.532-.182-.91-.546-1.134-.3547-.224-.8913-.336-1.61-.336h-1.414zm0 4.354h1.596c.7933 0 1.4093-.1447 1.848-.434.4387-.2987.658-.756.658-1.372 0-.5693-.2147-.9847-.644-1.246-.4293-.2707-1.05-.406-1.862-.406h-1.596zm6.5565.924v-6.804h.952l.098 1.232h.042c.2333-.4293.5133-.77.84-1.022.336-.252.7-.378 1.092-.378.2706 0 .5133.0467.728.14l-.224 1.008c-.112-.0373-.2147-.0653-.308-.084-.0934-.0187-.21-.028-.35-.028-.2894 0-.5927.1167-.91.35-.308.2333-.5787.6393-.812 1.218v4.368zm7.0748.168c-.4574 0-.8867-.0793-1.288-.238-.392-.168-.7374-.4013-1.036-.7-.2894-.308-.518-.6813-.686-1.12s-.252-.938-.252-1.498.084-1.0593.252-1.498c.1773-.448.406-.826.686-1.134.2893-.308.616-.5413.98-.7.364-.168.742-.252 1.134-.252.4293 0 .812.0747 1.148.224.3453.1493.63.364.854.644.2333.28.4106.616.532 1.008.1213.392.182.8307.182 1.316 0 .1213-.0047.2427-.014.364 0 .112-.0094.21-.028.294h-4.592c.0466.728.2706 1.3067.672 1.736.4106.42.9426.63 1.596.63.3266 0 .6253-.0467.896-.14.28-.1027.546-.2333.798-.392l.406.756c-.2987.1867-.63.35-.994.49s-.7794.21-1.246.21zm-2.142-4.116h3.64c0-.6907-.1494-1.2133-.448-1.568-.2894-.364-.7-.546-1.232-.546-.2427 0-.476.0467-.7.14-.2147.0933-.4107.2333-.588.42-.1774.1773-.3267.3967-.448.658-.112.2613-.1867.56-.224.896zm7.3059 4.116c-.5694 0-1.0454-.168-1.428-.504-.3734-.336-.56-.812-.56-1.428 0-.7467.3313-1.316.994-1.708.6626-.4013 1.722-.6813 3.178-.84 0-.2147-.0234-.4247-.07-.63-.0374-.2053-.1074-.3873-.21-.546-.1027-.1587-.2474-.2847-.434-.378-.1774-.1027-.406-.154-.686-.154-.392 0-.7607.0747-1.106.224-.3454.1493-.6534.3173-.924.504l-.448-.798c.3173-.2053.7046-.4013 1.162-.588.4573-.196.9613-.294 1.512-.294.8306 0 1.4326.2567 1.806.77.3733.504.56 1.1807.56 2.03v4.172h-.952l-.098-.812h-.042c-.3267.2707-.6767.504-1.05.7-.3734.1867-.7747.28-1.204.28zm.336-.924c.3266 0 .6346-.0747.924-.224.2893-.1587.5973-.3873.924-.686v-1.89c-.5694.0747-1.05.1633-1.442.266-.3827.1027-.6954.224-.938.364-.2334.14-.406.3033-.518.49-.1027.1773-.154.3733-.154.588 0 .392.1166.672.35.84.2333.168.518.252.854.252zm4.7507.756v-9.968h1.134v6.748h.042l2.898-3.584h1.274l-2.282 2.73 2.59 4.074h-1.26l-1.988-3.276-1.274 1.484v1.792zm5.3424-3.066v-.882h3.22v.882zm4.6336 3.066v-9.184h5.292v.98h-4.13v2.884h3.486v.994h-3.486v3.332h4.27v.994zm8.2041 0-2.45-6.804h1.19l1.288 3.864c.1027.336.2053.672.308 1.008.112.336.2193.6673.322.994h.056c.1027-.3267.2053-.658.308-.994s.2054-.672.308-1.008l1.288-3.864h1.134l-2.408 6.804zm7.3685.168c-.4573 0-.8867-.0793-1.288-.238-.392-.168-.7373-.4013-1.036-.7-.2893-.308-.518-.6813-.686-1.12s-.252-.938-.252-1.498.084-1.0593.252-1.498c.1773-.448.406-.826.686-1.134.2893-.308.616-.5413.98-.7.364-.168.742-.252 1.134-.252.4293 0 .812.0747 1.148.224.3453.1493.63.364.854.644.2333.28.4107.616.532 1.008s.182.8307.182 1.316c0 .1213-.0047.2427-.014.364 0 .112-.0093.21-.028.294h-4.592c.0467.728.2707 1.3067.672 1.736.4107.42.9427.63 1.596.63.3267 0 .6253-.0467.896-.14.28-.1027.546-.2333.798-.392l.406.756c-.2987.1867-.63.35-.994.49s-.7793.21-1.246.21zm-2.142-4.116h3.64c0-.6907-.1493-1.2133-.448-1.568-.2893-.364-.7-.546-1.232-.546-.2427 0-.476.0467-.7.14-.2147.0933-.4107.2333-.588.42-.1773.1773-.3267.3967-.448.658-.112.2613-.1867.56-.224.896zm5.9293 3.948v-6.804h.952l.098.98h.042c.3267-.3267.6673-.5973 1.022-.812.364-.224.784-.336 1.26-.336.7187 0 1.2413.224 1.568.672.336.448.504 1.1107.504 1.988v4.312h-1.148v-4.158c0-.644-.1027-1.106-.308-1.386-.2053-.2893-.532-.434-.98-.434-.3547 0-.6673.0887-.938.266s-.5787.4387-.924.784v4.928zm9.771 0v-9.184h2.618c.5133 0 .98.0467 1.4.14.4293.0933.7933.2473 1.092.462.2986.2053.532.4807.7.826s.252.77.252 1.274c0 .4853-.084.9053-.252 1.26-.1587.3547-.3874.6487-.686.882-.2987.2333-.658.4107-1.078.532-.4107.112-.868.168-1.372.168h-1.512v3.64zm1.162-4.592h1.372c.8026 0 1.3953-.1493 1.778-.448.392-.308.588-.7887.588-1.442 0-.6627-.2054-1.12-.616-1.372-.4014-.2613-1.0034-.392-1.806-.392h-1.316zm8.5599 4.76c-.42 0-.8214-.0793-1.204-.238-.3734-.1587-.7047-.3873-.994-.686-.2894-.308-.5227-.6813-.7-1.12-.168-.448-.252-.952-.252-1.512 0-.5693.084-1.0733.252-1.512.1773-.448.4106-.826.7-1.134.2893-.308.6206-.5413.994-.7.3826-.1587.784-.238 1.204-.238s.8166.0793 1.19.238c.3826.1587.7186.392 1.008.7.2893.308.518.686.686 1.134.1773.4387.266.9427.266 1.512 0 .56-.0887 1.064-.266 1.512-.168.4387-.3967.812-.686 1.12-.2894.2987-.6254.5273-1.008.686-.3734.1587-.77.238-1.19.238zm0-.952c.2893 0 .5553-.0607.798-.182.2426-.1307.448-.308.616-.532.1773-.2333.3126-.5087.406-.826.0933-.3173.14-.672.14-1.064s-.0467-.7467-.14-1.064c-.0934-.3267-.2287-.6067-.406-.84-.168-.2333-.3734-.4107-.616-.532-.2427-.1307-.5087-.196-.798-.196-.2894 0-.5554.0653-.798.196-.2427.1213-.4527.2987-.63.532-.168.2333-.2987.5133-.392.84-.0934.3173-.14.672-.14 1.064s.0466.7467.14 1.064c.0933.3173.224.5927.392.826.1773.224.3873.4013.63.532.2426.1213.5086.182.798.182zm4.5419.784v-6.804h1.148v6.804zm.588-8.204c-.224 0-.4154-.07-.574-.21-.1494-.14-.224-.3173-.224-.532 0-.224.0746-.4013.224-.532.1586-.14.35-.21.574-.21s.4106.07.56.21c.1586.1307.238.308.238.532 0 .2147-.0794.392-.238.532-.1494.14-.336.21-.56.21zm2.4573 8.204v-6.804h.952l.098.98h.042c.3266-.3267.6673-.5973 1.022-.812.364-.224.784-.336 1.26-.336.7186 0 1.2413.224 1.568.672.336.448.5041 1.1107.5041 1.988v4.312h-1.1481v-4.158c0-.644-.1027-1.106-.308-1.386-.2054-.2893-.532-.434-.98-.434-.3547 0-.6674.0887-.938.266-.2707.1773-.5787.4387-.924.784v4.928zm9.3981.168c-.364 0-.672-.056-.924-.168-.243-.112-.443-.266-.602-.462-.149-.196-.257-.434-.322-.714s-.098-.588-.098-.924v-3.766h-1.008v-.868l1.064-.07.14-1.904h.966v1.904h1.834v.938h-1.834v3.78c0 .42.075.7467.224.98.159.224.434.336.826.336.121 0 .252-.0187.392-.056s.266-.0793.378-.126l.224.868c-.187.0653-.392.1213-.616.168-.215.056-.429.084-.644.084z" fill="#1b1e29"/><path d="m18 36 83.5.5" stroke="#047dbc" stroke-linecap="square" stroke-width="4"/><rect fill="#047dbc" height="16" rx="8" stroke="#fff" stroke-width="3" transform="matrix(.70710678 -.70710678 .70710678 .70710678 -11.104076 45.192388)" width="16" x="49" y="36"/></svg>

<svg width="120" height="53" viewBox="0 0 120 53" fill="none" xmlns="http://www.w3.org/2000/svg">
<rect x="0.5" y="0.5" width="119" height="52" rx="7.5" stroke="#C5C5C5"/>
<path d="M13.26 20V10.816H15.99C16.4567 10.816 16.8813 10.858 17.264 10.942C17.656 11.026 17.9873 11.1567 18.258 11.334C18.538 11.5113 18.7527 11.7447 18.902 12.034C19.0607 12.314 19.14 12.6547 19.14 13.056C19.14 13.5133 19.0233 13.9287 18.79 14.302C18.566 14.666 18.2347 14.918 17.796 15.058V15.114C18.356 15.2167 18.8087 15.45 19.154 15.814C19.4993 16.178 19.672 16.6773 19.672 17.312C19.672 17.76 19.588 18.152 19.42 18.488C19.252 18.824 19.014 19.104 18.706 19.328C18.398 19.552 18.0293 19.72 17.6 19.832C17.1707 19.944 16.6993 20 16.186 20H13.26ZM14.422 14.722H15.78C16.564 14.722 17.1287 14.5867 17.474 14.316C17.8193 14.0453 17.992 13.6767 17.992 13.21C17.992 12.678 17.81 12.3 17.446 12.076C17.0913 11.852 16.5547 11.74 15.836 11.74H14.422V14.722ZM14.422 19.076H16.018C16.8113 19.076 17.4273 18.9313 17.866 18.642C18.3047 18.3433 18.524 17.886 18.524 17.27C18.524 16.7007 18.3093 16.2853 17.88 16.024C17.4507 15.7533 16.83 15.618 16.018 15.618H14.422V19.076ZM20.9785 20V13.196H21.9305L22.0285 14.428H22.0705C22.3038 13.9987 22.5838 13.658 22.9105 13.406C23.2465 13.154 23.6105 13.028 24.0025 13.028C24.2731 13.028 24.5158 13.0747 24.7305 13.168L24.5065 14.176C24.3945 14.1387 24.2918 14.1107 24.1985 14.092C24.1051 14.0733 23.9885 14.064 23.8485 14.064C23.5591 14.064 23.2558 14.1807 22.9385 14.414C22.6305 14.6473 22.3598 15.0533 22.1265 15.632V20H20.9785ZM28.0533 20.168C27.5959 20.168 27.1666 20.0887 26.7653 19.93C26.3733 19.762 26.0279 19.5287 25.7293 19.23C25.4399 18.922 25.2113 18.5487 25.0433 18.11C24.8753 17.6713 24.7913 17.172 24.7913 16.612C24.7913 16.052 24.8753 15.5527 25.0433 15.114C25.2206 14.666 25.4493 14.288 25.7293 13.98C26.0186 13.672 26.3453 13.4387 26.7093 13.28C27.0733 13.112 27.4513 13.028 27.8433 13.028C28.2726 13.028 28.6553 13.1027 28.9913 13.252C29.3366 13.4013 29.6213 13.616 29.8453 13.896C30.0786 14.176 30.2559 14.512 30.3773 14.904C30.4986 15.296 30.5593 15.7347 30.5593 16.22C30.5593 16.3413 30.5546 16.4627 30.5453 16.584C30.5453 16.696 30.5359 16.794 30.5173 16.878H25.9253C25.9719 17.606 26.1959 18.1847 26.5973 18.614C27.0079 19.034 27.5399 19.244 28.1933 19.244C28.5199 19.244 28.8186 19.1973 29.0893 19.104C29.3693 19.0013 29.6353 18.8707 29.8873 18.712L30.2933 19.468C29.9946 19.6547 29.6633 19.818 29.2993 19.958C28.9353 20.098 28.5199 20.168 28.0533 20.168ZM25.9113 16.052H29.5513C29.5513 15.3613 29.4019 14.8387 29.1033 14.484C28.8139 14.12 28.4033 13.938 27.8713 13.938C27.6286 13.938 27.3953 13.9847 27.1713 14.078C26.9566 14.1713 26.7606 14.3113 26.5833 14.498C26.4059 14.6753 26.2566 14.8947 26.1353 15.156C26.0233 15.4173 25.9486 15.716 25.9113 16.052ZM33.2172 20.168C32.6478 20.168 32.1718 20 31.7892 19.664C31.4158 19.328 31.2292 18.852 31.2292 18.236C31.2292 17.4893 31.5605 16.92 32.2232 16.528C32.8858 16.1267 33.9452 15.8467 35.4012 15.688C35.4012 15.4733 35.3778 15.2633 35.3312 15.058C35.2938 14.8527 35.2238 14.6707 35.1212 14.512C35.0185 14.3533 34.8738 14.2273 34.6872 14.134C34.5098 14.0313 34.2812 13.98 34.0012 13.98C33.6092 13.98 33.2405 14.0547 32.8952 14.204C32.5498 14.3533 32.2418 14.5213 31.9712 14.708L31.5232 13.91C31.8405 13.7047 32.2278 13.5087 32.6852 13.322C33.1425 13.126 33.6465 13.028 34.1972 13.028C35.0278 13.028 35.6298 13.2847 36.0032 13.798C36.3765 14.302 36.5632 14.9787 36.5632 15.828V20H35.6112L35.5132 19.188H35.4712C35.1445 19.4587 34.7945 19.692 34.4212 19.888C34.0478 20.0747 33.6465 20.168 33.2172 20.168ZM33.5532 19.244C33.8798 19.244 34.1878 19.1693 34.4772 19.02C34.7665 18.8613 35.0745 18.6327 35.4012 18.334V16.444C34.8318 16.5187 34.3512 16.6073 33.9592 16.71C33.5765 16.8127 33.2638 16.934 33.0212 17.074C32.7878 17.214 32.6152 17.3773 32.5032 17.564C32.4005 17.7413 32.3492 17.9373 32.3492 18.152C32.3492 18.544 32.4658 18.824 32.6992 18.992C32.9325 19.16 33.2172 19.244 33.5532 19.244ZM38.3039 20V10.032H39.4379V16.78H39.4799L42.3779 13.196H43.6519L41.3699 15.926L43.9599 20H42.6999L40.7119 16.724L39.4379 18.208V20H38.3039ZM43.6463 16.934V16.052H46.8663V16.934H43.6463ZM48.2799 20V10.816H53.5719V11.796H49.4419V14.68H52.9279V15.674H49.4419V19.006H53.7119V20H48.2799ZM56.484 20L54.034 13.196H55.224L56.512 17.06C56.6147 17.396 56.7173 17.732 56.82 18.068C56.932 18.404 57.0393 18.7353 57.142 19.062H57.198C57.3007 18.7353 57.4033 18.404 57.506 18.068C57.6087 17.732 57.7114 17.396 57.814 17.06L59.102 13.196H60.236L57.828 20H56.484ZM63.8525 20.168C63.3952 20.168 62.9658 20.0887 62.5645 19.93C62.1725 19.762 61.8272 19.5287 61.5285 19.23C61.2392 18.922 61.0105 18.5487 60.8425 18.11C60.6745 17.6713 60.5905 17.172 60.5905 16.612C60.5905 16.052 60.6745 15.5527 60.8425 15.114C61.0198 14.666 61.2485 14.288 61.5285 13.98C61.8178 13.672 62.1445 13.4387 62.5085 13.28C62.8725 13.112 63.2505 13.028 63.6425 13.028C64.0718 13.028 64.4545 13.1027 64.7905 13.252C65.1358 13.4013 65.4205 13.616 65.6445 13.896C65.8778 14.176 66.0552 14.512 66.1765 14.904C66.2978 15.296 66.3585 15.7347 66.3585 16.22C66.3585 16.3413 66.3538 16.4627 66.3445 16.584C66.3445 16.696 66.3352 16.794 66.3165 16.878H61.7245C61.7712 17.606 61.9952 18.1847 62.3965 18.614C62.8072 19.034 63.3392 19.244 63.9925 19.244C64.3192 19.244 64.6178 19.1973 64.8885 19.104C65.1685 19.0013 65.4345 18.8707 65.6865 18.712L66.0925 19.468C65.7938 19.6547 65.4625 19.818 65.0985 19.958C64.7345 20.098 64.3192 20.168 63.8525 20.168ZM61.7105 16.052H65.3505C65.3505 15.3613 65.2012 14.8387 64.9025 14.484C64.6132 14.12 64.2025 13.938 63.6705 13.938C63.4278 13.938 63.1945 13.9847 62.9705 14.078C62.7558 14.1713 62.5598 14.3113 62.3825 14.498C62.2052 14.6753 62.0558 14.8947 61.9345 15.156C61.8225 15.4173 61.7478 15.716 61.7105 16.052ZM67.6398 20V13.196H68.5918L68.6898 14.176H68.7318C69.0585 13.8493 69.3991 13.5787 69.7538 13.364C70.1178 13.14 70.5378 13.028 71.0138 13.028C71.7325 13.028 72.2551 13.252 72.5818 13.7C72.9178 14.148 73.0858 14.8107 73.0858 15.688V20H71.9378V15.842C71.9378 15.198 71.8351 14.736 71.6298 14.456C71.4245 14.1667 71.0978 14.022 70.6498 14.022C70.2951 14.022 69.9825 14.1107 69.7118 14.288C69.4411 14.4653 69.1331 14.7267 68.7878 15.072V20H67.6398ZM77.4108 20V10.816H80.0288C80.5421 10.816 81.0088 10.8627 81.4288 10.956C81.8581 11.0493 82.2221 11.2033 82.5208 11.418C82.8194 11.6233 83.0528 11.8987 83.2208 12.244C83.3888 12.5893 83.4728 13.014 83.4728 13.518C83.4728 14.0033 83.3888 14.4233 83.2208 14.778C83.0621 15.1327 82.8334 15.4267 82.5348 15.66C82.2361 15.8933 81.8768 16.0707 81.4568 16.192C81.0461 16.304 80.5888 16.36 80.0848 16.36H78.5728V20H77.4108ZM78.5728 15.408H79.9448C80.7474 15.408 81.3401 15.2587 81.7228 14.96C82.1148 14.652 82.3108 14.1713 82.3108 13.518C82.3108 12.8553 82.1054 12.398 81.6948 12.146C81.2934 11.8847 80.6914 11.754 79.8888 11.754H78.5728V15.408ZM87.1327 20.168C86.7127 20.168 86.3113 20.0887 85.9287 19.93C85.5553 19.7713 85.224 19.5427 84.9347 19.244C84.6453 18.936 84.412 18.5627 84.2347 18.124C84.0667 17.676 83.9827 17.172 83.9827 16.612C83.9827 16.0427 84.0667 15.5387 84.2347 15.1C84.412 14.652 84.6453 14.274 84.9347 13.966C85.224 13.658 85.5553 13.4247 85.9287 13.266C86.3113 13.1073 86.7127 13.028 87.1327 13.028C87.5527 13.028 87.9493 13.1073 88.3227 13.266C88.7053 13.4247 89.0413 13.658 89.3307 13.966C89.62 14.274 89.8487 14.652 90.0167 15.1C90.194 15.5387 90.2827 16.0427 90.2827 16.612C90.2827 17.172 90.194 17.676 90.0167 18.124C89.8487 18.5627 89.62 18.936 89.3307 19.244C89.0413 19.5427 88.7053 19.7713 88.3227 19.93C87.9493 20.0887 87.5527 20.168 87.1327 20.168ZM87.1327 19.216C87.422 19.216 87.688 19.1553 87.9307 19.034C88.1733 18.9033 88.3787 18.726 88.5467 18.502C88.724 18.2687 88.8593 17.9933 88.9527 17.676C89.046 17.3587 89.0927 17.004 89.0927 16.612C89.0927 16.22 89.046 15.8653 88.9527 15.548C88.8593 15.2213 88.724 14.9413 88.5467 14.708C88.3787 14.4747 88.1733 14.2973 87.9307 14.176C87.688 14.0453 87.422 13.98 87.1327 13.98C86.8433 13.98 86.5773 14.0453 86.3347 14.176C86.092 14.2973 85.882 14.4747 85.7047 14.708C85.5367 14.9413 85.406 15.2213 85.3127 15.548C85.2193 15.8653 85.1727 16.22 85.1727 16.612C85.1727 17.004 85.2193 17.3587 85.3127 17.676C85.406 17.9933 85.5367 18.2687 85.7047 18.502C85.882 18.726 86.092 18.9033 86.3347 19.034C86.5773 19.1553 86.8433 19.216 87.1327 19.216ZM91.6746 20V13.196H92.8226V20H91.6746ZM92.2626 11.796C92.0386 11.796 91.8472 11.726 91.6886 11.586C91.5392 11.446 91.4646 11.2687 91.4646 11.054C91.4646 10.83 91.5392 10.6527 91.6886 10.522C91.8472 10.382 92.0386 10.312 92.2626 10.312C92.4866 10.312 92.6732 10.382 92.8226 10.522C92.9812 10.6527 93.0606 10.83 93.0606 11.054C93.0606 11.2687 92.9812 11.446 92.8226 11.586C92.6732 11.726 92.4866 11.796 92.2626 11.796ZM94.7199 20V13.196H95.6719L95.7699 14.176H95.8119C96.1385 13.8493 96.4792 13.5787 96.8339 13.364C97.1979 13.14 97.6179 13.028 98.0939 13.028C98.8125 13.028 99.3352 13.252 99.6619 13.7C99.9979 14.148 100.166 14.8107 100.166 15.688V20H99.0179V15.842C99.0179 15.198 98.9152 14.736 98.7099 14.456C98.5045 14.1667 98.1779 14.022 97.7299 14.022C97.3752 14.022 97.0625 14.1107 96.7919 14.288C96.5212 14.4653 96.2132 14.7267 95.8679 15.072V20H94.7199ZM104.118 20.168C103.754 20.168 103.446 20.112 103.194 20C102.951 19.888 102.751 19.734 102.592 19.538C102.443 19.342 102.335 19.104 102.27 18.824C102.205 18.544 102.172 18.236 102.172 17.9V14.134H101.164V13.266L102.228 13.196L102.368 11.292H103.334V13.196H105.168V14.134H103.334V17.914C103.334 18.334 103.409 18.6607 103.558 18.894C103.717 19.118 103.992 19.23 104.384 19.23C104.505 19.23 104.636 19.2113 104.776 19.174C104.916 19.1367 105.042 19.0947 105.154 19.048L105.378 19.916C105.191 19.9813 104.986 20.0373 104.762 20.084C104.547 20.14 104.333 20.168 104.118 20.168Z" fill="#1B1E29"/>
<path d="M18 36L101.5 36.5" stroke="#047DBC" stroke-width="4" stroke-linecap="square"/>
<rect x="49" y="36" width="16" height="16" rx="8" transform="rotate(-45 49 36)" fill="#047DBC" stroke="white" stroke-width="3"/>
</svg>
